src/img/projects/codepen.svg

<?xml version="1.0" encoding="UTF-8"?>
<svg width="90px" height="90px" viewBox="0 0 90 90" version="1.1" xmlns="http://www.w3.org/2000/svg" xmlns:xlink="http://www.w3.org/1999/xlink">
    <!-- Generator: Sketch 41.2 (35397) - http://www.bohemiancoding.com/sketch -->
    <title>community/card/logo/codepen</title>
    <desc>Created with Sketch.</desc>
    <defs>
        <path d="M62.3125398,50.2752645 C62.3125398,50.3408414 62.3079234,50.4054712 62.2992824,50.4701011 C62.2960864,50.4910525 62.2909965,50.5129509 62.2874454,50.5339024 C62.2797514,50.5758052 62.2724125,50.6177081 62.2614042,50.658664 C62.2551306,50.6832849 62.2460161,50.7068405 62.2382037,50.7306328 C62.2263668,50.7669723 62.2146482,50.8035486 62.2000888,50.8400064 C62.1900274,50.864509 62.1775986,50.8881829 62.166827,50.9118568 C62.1508471,50.9455922 62.1343937,50.9782622 62.1162832,51.011169 C62.1029074,51.033896 62.0879929,51.0567414 62.0737886,51.0794684 C62.0537841,51.1104812 62.0334246,51.1405471 62.0110527,51.1696661 C61.9945994,51.1923931 61.9777909,51.2133445 61.9596804,51.2342959 C61.9363616,51.261521 61.9117408,51.2888644 61.8858179,51.3143139 C61.8661685,51.3344367 61.8469927,51.3544412 61.8266331,51.3726701 C61.7997633,51.397291 61.7711179,51.420965 61.741999,51.443692 C61.7199822,51.4610923 61.6982023,51.4783743 61.6748835,51.4947093 C61.6663609,51.5002727 61.6586669,51.5074932 61.6499075,51.5129382 L45.8254494,62.0629938 C45.5754531,62.2296584 45.2880521,62.3133458 44.9998224,62.3133458 C44.7125398,62.3133458 44.4246652,62.2296584 44.1746689,62.0629938 L28.3497374,51.5129382 C28.3414515,51.5074932 28.3337575,51.5002727 28.32559,51.4947093 C28.3022712,51.4783743 28.2800178,51.4610923 28.2581194,51.443692 C28.2290005,51.420965 28.2007102,51.397291 28.1738403,51.3726701 C28.1533624,51.3544412 28.1338315,51.3344367 28.1141821,51.3143139 C28.0882592,51.2888644 28.0642302,51.261521 28.0399645,51.2342959 C28.0226825,51.2133445 28.0054006,51.1923931 27.9890656,51.1696661 C27.9671673,51.1405471 27.9462159,51.1104812 27.9265665,51.0794684 C27.9115336,51.0567414 27.8974477,51.033896 27.8838352,51.011169 C27.8656063,50.9782622 27.8492713,50.9455922 27.8332914,50.9118568 C27.8219279,50.8881829 27.8104461,50.864509 27.8000296,50.8400064 C27.7854701,50.8035486 27.7731597,50.7669723 27.7617963,50.7306328 C27.7536288,50.7068405 27.7454613,50.6832849 27.7385958,50.658664 C27.7275875,50.6177081 27.7203669,50.5758052 27.7125546,50.5339024 C27.7090035,50.5129509 27.7035585,50.4910525 27.7007176,50.4701011 C27.6920766,50.4054712 27.6871051,50.3408414 27.6871051,50.2752645 L27.6871051,39.7252089 C27.6871051,39.6596321 27.6920766,39.5950023 27.7007176,39.531201 C27.7035585,39.509421 27.7090035,39.4884695 27.7125546,39.4665711 C27.7203669,39.4246682 27.7275875,39.3827654 27.7385958,39.3418095 C27.7454613,39.3171886 27.7536288,39.2935146 27.7617963,39.2698407 C27.7731597,39.2333828 27.7854701,39.1970433 27.8000296,39.161414 C27.8104461,39.1369115 27.8219279,39.1122906 27.8332914,39.0886166 C27.8492713,39.0548813 27.8656063,39.0220929 27.8838352,38.9902514 C27.8974477,38.9665775 27.9115336,38.9438505 27.9265665,38.9210051 C27.9462159,38.8901106 27.9671673,38.8600447 27.9890656,38.8308074 C28.0054006,38.8090274 28.0226825,38.787129 28.0399645,38.7662959 C28.0642302,38.7389525 28.0882592,38.7116091 28.1141821,38.6860413 C28.1338315,38.6660368 28.1533624,38.6460323 28.1738403,38.6278034 C28.2007102,38.6031825 28.2290005,38.5795085 28.2581194,38.5566632 C28.2800178,38.5393812 28.3022712,38.5220992 28.32559,38.5057642 C28.3337575,38.5002008 28.3414515,38.4929803 28.3497374,38.4875352 L44.1746689,27.9374797 C44.6746615,27.6041505 45.3253385,27.6041505 45.8254494,27.9374797 L61.6499075,38.4875352 C61.6586669,38.4929803 61.6663609,38.5002008 61.6748835,38.5057642 C61.6982023,38.5220992 61.7199822,38.5393812 61.741999,38.5566632 C61.7711179,38.5795085 61.7997633,38.6031825 61.8266331,38.6278034 C61.8469927,38.6460323 61.8661685,38.6660368 61.8858179,38.6860413 C61.9117408,38.7116091 61.9363616,38.7389525 61.9596804,38.7662959 C61.9777909,38.787129 61.9945994,38.8090274 62.0110527,38.8308074 C62.0334246,38.8600447 62.0537841,38.8901106 62.0737886,38.9210051 C62.0879929,38.9438505 62.1029074,38.9665775 62.1162832,38.9902514 C62.1343937,39.0220929 62.1508471,39.0548813 62.166827,39.0886166 C62.1775986,39.1122906 62.1900274,39.1369115 62.2000888,39.161414 C62.2146482,39.1970433 62.2263668,39.2333828 62.2382037,39.2698407 C62.2460161,39.2935146 62.2551306,39.3171886 62.2614042,39.3418095 C62.2724125,39.3827654 62.2797514,39.4246682 62.2874454,39.4665711 C62.2909965,39.4884695 62.2960864,39.509421 62.2992824,39.531201 C62.3079234,39.5950023 62.3125398,39.6596321 62.3125398,39.7252089 L62.3125398,50.2752645 L62.3125398,50.2752645 Z M44.9998224,17 C29.5363912,17 17,29.5359442 17,45.0002367 C17,60.4646476 29.5363912,73 44.9998224,73 C60.4642006,73 73,60.4646476 73,45.0002367 C73,29.5359442 60.4642006,17 44.9998224,17 Z M44.9998461,41.4802411 L39.737495,45.0002012 L44.9998461,48.5202797 L50.2625523,45.0002012 L44.9998461,41.4802411 Z M46.4879041,51.1048942 L46.4879041,58.0447919 L58.1458756,50.2734653 L52.9386846,46.7907917 L46.4879041,51.1048942 Z M31.8541836,50.273418 L43.5120367,58.0447446 L43.5120367,51.1048468 L37.061848,46.7907443 L31.8541836,50.273418 Z M58.1459111,39.7270673 L46.4879396,31.9557407 L46.4879396,38.8955201 L52.9387201,43.2106879 L58.1459111,39.7270673 Z M43.5120722,38.895532 L43.5120722,31.9557526 L31.8542191,39.7270792 L37.0617652,43.2106998 L43.5120722,38.895532 Z M30.6629252,42.5102588 L30.6629252,47.490191 L34.3856447,45.0002841 L30.6629252,42.5102588 Z M59.3371103,47.4902265 L59.3371103,42.5102944 L55.6149826,45.0002012 L59.3371103,47.4902265 Z" id="path-1"></path>
        <mask id="mask-2" maskContentUnits="userSpaceOnUse" maskUnits="objectBoundingBox" x="-2" y="-2" width="60" height="60">
            <rect x="15" y="15" width="60" height="60" fill="white"></rect>
            <use xlink:href="#path-1" fill="black"></use>
        </mask>
    </defs>
    <g id="Symbols" stroke="none" stroke-width="1" fill="none" fill-rule="evenodd">
        <g id="community/card/logo/codepen" stroke="#FFFFFF" stroke-width="4">
            <use id="icon" mask="url(#mask-2)" xlink:href="#path-1"></use>
        </g>
    </g>
</svg>

<svg width="90" height="90" viewBox="0 0 90 90" xmlns="http://www.w3.org/2000/svg" xmlns:xlink="http://www.w3.org/1999/xlink"><title>community/card/logo/codepen</title><defs><path d="M62.313 50.275c0 .066-.005.13-.014.195l-.012.064c-.007.042-.015.084-.026.125-.006.024-.015.048-.023.072-.012.036-.023.073-.038.109-.01.025-.022.048-.033.072a1.82 1.82 0 0 1-.05.1l-.043.067a1.33 1.33 0 0 1-.188.235c-.02.02-.039.04-.06.059a1.405 1.405 0 0 1-.084.07l-.067.052c-.009.005-.016.012-.025.018l-15.825 10.55a1.486 1.486 0 0 1-1.65 0L28.35 51.513l-.024-.018a1.398 1.398 0 0 1-.152-.122l-.06-.059a1.225 1.225 0 0 1-.188-.235 1.797 1.797 0 0 1-.042-.068 1.74 1.74 0 0 1-.05-.1c-.012-.023-.024-.046-.034-.071a1.503 1.503 0 0 1-.038-.11c-.008-.023-.017-.047-.023-.071-.011-.041-.019-.083-.026-.125-.004-.021-.01-.043-.012-.064a1.466 1.466 0 0 1-.014-.195v-10.55c0-.065.005-.13.014-.194.003-.022.008-.043.012-.064.007-.042.015-.084.026-.125.006-.025.015-.048.023-.072a1.34 1.34 0 0 1 .227-.44l.051-.064c.024-.027.048-.054.074-.08l.06-.058a1.445 1.445 0 0 1 .152-.122c.008-.006.015-.013.024-.018l15.825-10.55c.5-.334 1.15-.334 1.65 0l15.825 10.55c.009.005.016.012.025.018l.067.05c.03.024.058.047.085.072a1.272 1.272 0 0 1 .247.293c.014.023.029.046.042.07.018.031.035.064.05.098.012.023.024.048.034.072.015.036.026.072.038.109.008.024.017.047.023.072.011.04.019.083.026.125.004.021.01.042.012.064.009.064.014.129.014.194v10.55zM45 17c-15.464 0-28 12.536-28 28 0 15.465 12.536 28 28 28s28-12.535 28-28c0-15.464-12.536-28-28-28zm0 24.48L39.737 45 45 48.52 50.263 45 45 41.48zm1.488 9.625v6.94l11.658-7.772-5.207-3.482-6.451 4.314zm-14.634-.832l11.658 7.772v-6.94l-6.45-4.314-5.208 3.482zm26.292-10.546l-11.658-7.771v6.94l6.45 4.315 5.208-3.484zm-14.634-.831v-6.94l-11.658 7.771 5.208 3.484 6.45-4.315zm-12.85 3.614v4.98L34.387 45l-3.723-2.49zm28.675 4.98v-4.98L55.615 45l3.722 2.49z" id="a"/><mask id="b" x="-2" y="-2" width="60" height="60"><path fill="#fff" d="M15 15h60v60H15z"/><use xlink:href="#a"/></mask></defs><use mask="url(#b)" xlink:href="#a" stroke="#FFF" stroke-width="4" fill="none" fill-rule="evenodd"/></svg>
